!!!SOCIAL_FUNCTION:	songs of social dance
!!!PDT:	1936
!!!OTL: No_66_Song_of_Snake_Dance_(b).krn
!!!REG: Oklahoma and Montana
!!!LANG: Tone
!!!LING_GROUP: Algonquin
**kern	**kern
*staff2	*staff1
=1-	=1-
*clefF4	*clefF4
*k[b-e-a-d-]	*k[b-e-a-d-]
*M2/4	*M2/4
4GG/	8F\L
.	8c\J
4GG/	16c\LL
.	16c\
.	16A-\JJ
.	16r
=2	=2
*M3/4	*M3/4
4GG/	2c\
4GG/	.
4GG/	16B-\
.	8.r
=3	=3
*M2/4	*M2/4
4GG/	8B-\L
.	8c\J
4GG/	16c\LL
.	16c\
.	16A-\JJ
.	16r
=4	=4
4GG/	8B-\L
.	8B-\J
4GG/	8c\L
.	8A-\J
=5	=5
*M3/8	*M3/8
4GG/	8F\L
.	8F\
[8GG/	8C\J
=6	=6
*M5/8	*M5/8
8GG/]	8F\L
4GG/	16F\Jk
.	16r
.	8F\L
4GG/	8G\
.	8F\J
=7	=7
*M7/8	*M7/8
4GG/	[2F\
4GG/	.
4GG/	4F\]
[8GG/	8C/
=8	=8
*M5/8	*M5/8
8GG/]	8G\L
4GG/	8G\
.	8G\
4GG/	8G\
.	8F\J
=9	=9
*M6/8	*M6/8
4GG/	8D-\L
.	8D-\
4GG/	8C\J
.	8D-\L
4GG/	8D-\
.	8C\J
=10	=10
4GG/	2C/
4GG/	.
4GG/	4r
=11	=11
*k[b-]	*k[b-]
*M2/4	*M2/4
4GG/	8A\L
.	8G\J
4GG/	16G\LL
.	16G\J
.	8F\J
=12	=12
*M5/8	*M5/8
4GG/	8A\L
.	8G\
4GG/	16G\L
.	16G\J
.	8F\
[8GG/	8C\J
=13	=13
8GG/]	8F\L
4GG/	16F\Jk
.	16r
.	8F\L
4GG/	8G\
.	8F\J
=14	=14
*M3/4	*M3/4
4GG/	2F\
4GG/	.
4GG/	4r
=15!|:	=15!|:
*M2/4	*M2/4
4GG/	16c\LK
.	8c\
.	16c\Jk
4GG/	16d\LL
.	16c\
.	16A\JJ
.	16r
=16	=16
4GG/	16c\LK
.	8c\
.	16c\Jk
4GG/	16d\LL
.	16c\
.	16A\JJ
.	16r
=17	=17
4GG/	16A\LK
.	8.G\J
4GG/	16A\LL
.	16G\
.	16F\JJ
.	16r
=18	=18
*M5/8	*M5/8
4GG/	8A\L
.	8G\
4GG/	8G\
.	8G\
[8GG/	16F\Jk
.	16r
=19	=19
8GG/]	8G\L
4GG/	8G\
.	8B-\
4GG/	8G\
.	8G\J
=20	=20
*M2/4	*M2/4
4GG/	8C/L
.	8C/J
4GG/	8C/L
.	8C/J
=21	=21
4GG/	8C/
.	8r
4GG/	16G\LK
.	8.F\J
=22	=22
*M3/4	*M3/4
4GG/	8F\L
.	[8F\J
4GG/	8F\L]
.	8F\J
4GG/	8F\
.	8r
=23	=23
*M2/4	*M2/4
4GG/	8G\L
.	8F\J
4GG/	16F\LK
.	8.F\J
=24	=24
4GG/	16F\LL
.	16F\J
.	8F\J
4GG/	8F\
.	8r
=25	=25
4GG/	8G\L
.	8F\J
4GG/	16F\LK
.	8.F\J
=26	=26
4GG/	16F\LL
.	16F\J
.	8F\J
4GG/	8F\
.	8r
==:|!	==:|!
*-	*-
